X:146
T: Moll in the Wad
N: O'Farrell's Pocket Companion v.2 (Sky ed. p.76)
N: "Irish"
M: 6/8
R: jig
L: 1/8
Q: 320
K: G
c|BAB G2F|E2F G2A|BAB G2B|AFD D2c|
BAB G2F|E2F G2A|BGB d2B|AFD D2 :|
c|BGB ded|BGB d2c|BGB dgd|ecA A2c|
BGB ded|BGB def|gfe d2c|AFD D2 :|
